icon-themes/sifr_svg/cmd/lc_switchcontroldesignmode.svg

<svg viewBox="0 0 24 24" xmlns="http://www.w3.org/2000/svg"><path d="m3 1c-.554 0-1 .446-1 1v19c0 .554.446 1 1 1h6v-2h-4v-2h4.84375c.334104-.333961.665947-.666286 1-1h-5.84375v-2h7.84375c.333772-.333328.666458-.666811 1-1h-8.84375v-2h10.84375c.332903-.333017.667507-.667015 1-1h-11.84375v-2h13.839844.160156.257812c.148554 0 .485253.030365.841797.1542969.755746.1679991 1.40844.5651131 1.900391 1.1054691v-8.259766c0-.554-.446-1-1-1zm2 2h13v2h-13zm0 3h14v2h-14zm14.257812 4-1.373046 1.388672c.917143.914946 1.826998 1.829073 2.74414 2.726562l1.371094-1.373046c0-.171429-.00011-.34163-.04297-.535157-.04286-.14933-.11688-.28842-.171875-.429687-.33322-.855982-1.05356-1.519978-1.970703-1.691406-.18533-.085716-.385211-.085938-.55664-.085938zm-2.74414 2.742188-6.513672 6.515624v2.742188h2.742188l6.515624-6.513672zm5.486328 1.414062c-1.280827 1.281673-2.562501 2.562499-3.84375 3.84375h.84375v2h-2.84375c-.666775.666558-1.33312 1.333546-2 2h6.84375c.554 0 1-.446 1-1z" fill="#555753"/></svg>

<svg xmlns="http://www.w3.org/2000/svg" viewBox="0 0 24 24">
  <path
     style="fill:#555753"
     d="M 3,1 C 2.446,1 2,1.446 2,2 v 19 c 0,0.554 0.446,1 1,1 H 9 V 20 H 5 v -2 h 4.84375 c 0.334104,-0.333961 0.665947,-0.666286 1,-1 H 5 v -2 h 7.84375 c 0.333772,-0.333328 0.666458,-0.666811 1,-1 H 5 v -2 h 10.84375 c 0.332903,-0.333017 0.667507,-0.667015 1,-1 H 5 V 9 H 18.839844 19 19.257812 c 0.148554,0 0.485253,0.030365 0.841797,0.1542969 C 20.855355,9.322296 21.508049,9.71941 22,10.259766 V 2 C 22,1.446 21.554,1 21,1 Z M 5,3 H 18 V 5 H 5 Z M 5,6 H 19 V 8 H 5 Z m 14.257812,4 -1.373046,1.388672 c 0.917143,0.914946 1.826998,1.829073 2.74414,2.726562 L 22,12.742188 c 0,-0.171429 -1.1e-4,-0.34163 -0.04297,-0.535157 -0.04286,-0.14933 -0.11688,-0.28842 -0.171875,-0.429687 -0.33322,-0.855982 -1.05356,-1.519978 -1.970703,-1.691406 C 19.629122,10.000222 19.429241,10 19.257812,10 Z M 16.513672,12.742188 10,19.257812 V 22 h 2.742188 l 6.515624,-6.513672 z M 22,14.15625 C 20.719173,15.437923 19.437499,16.718749 18.15625,18 H 19 v 2 h -2.84375 c -0.666775,0.666558 -1.33312,1.333546 -2,2 H 21 c 0.554,0 1,-0.446 1,-1 z"
     />
</svg>
